<?xml version="1.0" encoding="UTF-8"?>
<map version="1.5" tiledversion="2021.03.23" orientation="orthogonal" renderorder="right-down" width="16" height="12" tilewidth="16" tileheight="16" infinite="0" nextlayerid="2" nextobjectid="1">
 <editorsettings>
  <export target="map0.Asm" format="stonewalk"/>
 </editorsettings>
 <properties>
  <property name="gemgoal" type="int" value="1"/>
  <property name="title" value="Welcome to stonewalk"/>
 </properties>
 <tileset firstgid="1" source="stonewalk.tsx"/>
 <layer id="1" name="Tile Layer 1" width="16" height="12">
  <data encoding="csv">
17,1,1,1,1,1,1,1,1,1,1,1,1,1,1,1,
1,1,1,1,1,1,1,1,1,1,1,1,1,1,1,1,
1,1,4,4,4,4,4,4,4,4,4,4,4,4,1,18,
3,1,4,3,3,7,3,3,3,3,6,3,7,4,18,18,
1,1,4,3,3,3,3,3,3,3,3,3,6,4,18,1,
1,1,4,3,2,3,3,3,3,3,3,8,3,4,1,3,
1,1,4,3,3,3,3,3,7,3,3,3,3,4,1,1,
1,3,4,3,6,3,3,3,3,3,3,7,3,4,18,1,
1,1,4,4,4,4,4,4,4,4,4,4,4,4,1,1,
1,1,1,1,1,1,1,1,1,1,1,1,1,1,1,1,
1,1,1,1,1,1,1,1,1,1,3,1,1,1,1,1,
1,3,1,1,3,1,1,1,1,1,1,1,1,1,3,1
</data>
 </layer>
</map>
